src/assets/svgs/filter.svg

<!DOCTYPE svg PUBLIC "-//W3C//DTD SVG 1.1//EN" "http://www.w3.org/Graphics/SVG/1.1/DTD/svg11.dtd">
<!-- Uploaded to: SVG Repo, www.svgrepo.com, Transformed by: SVG Repo Mixer Tools -->
<svg width="800px" height="800px" viewBox="0 0 24 24" fill="none" xmlns="http://www.w3.org/2000/svg">
<g id="SVGRepo_bgCarrier" stroke-width="0"/>
<g id="SVGRepo_tracerCarrier" stroke-linecap="round" stroke-linejoin="round"/>
<g id="SVGRepo_iconCarrier"> <g id="style=stroke"> <g id="filter-circle"> <path id="vector (Stroke)" fill-rule="evenodd" clip-rule="evenodd" d="M7.75 17.5C7.75 17.0858 7.41421 16.75 7 16.75H2C1.58579 16.75 1.25 17.0858 1.25 17.5C1.25 17.9142 1.58579 18.25 2 18.25H7C7.41421 18.25 7.75 17.9142 7.75 17.5Z" fill="#000000"/> <path id="vector (Stroke)_2" fill-rule="evenodd" clip-rule="evenodd" d="M16.25 6.5C16.25 6.08579 16.5858 5.75 17 5.75H22C22.4142 5.75 22.75 6.08579 22.75 6.5C22.75 6.91421 22.4142 7.25 22 7.25H17C16.5858 7.25 16.25 6.91421 16.25 6.5Z" fill="#000000"/> <path id="vector (Stroke)_3" fill-rule="evenodd" clip-rule="evenodd" d="M22.75 17.5C22.75 17.0858 22.4142 16.75 22 16.75H13C12.5858 16.75 12.25 17.0858 12.25 17.5C12.25 17.9142 12.5858 18.25 13 18.25H22C22.4142 18.25 22.75 17.9142 22.75 17.5Z" fill="#000000"/> <path id="vector (Stroke)_4" fill-rule="evenodd" clip-rule="evenodd" d="M1.25 6.5C1.25 6.08579 1.58579 5.75 2 5.75H11C11.4142 5.75 11.75 6.08579 11.75 6.5C11.75 6.91421 11.4142 7.25 11 7.25H2C1.58579 7.25 1.25 6.91421 1.25 6.5Z" fill="#000000"/> <path id="vector (Stroke)_5" fill-rule="evenodd" clip-rule="evenodd" d="M10 15.1499C11.2426 15.1499 12.25 16.1573 12.25 17.3999C12.25 18.6425 11.2426 19.6499 10 19.6499C8.75736 19.6499 7.75 18.6425 7.75 17.3999C7.75 16.1573 8.75736 15.1499 10 15.1499ZM13.75 17.3999C13.75 15.3288 12.0711 13.6499 10 13.6499C7.92893 13.6499 6.25 15.3288 6.25 17.3999C6.25 19.471 7.92893 21.1499 10 21.1499C12.0711 21.1499 13.75 19.471 13.75 17.3999Z" fill="#000000"/> <path id="vector (Stroke)_6" fill-rule="evenodd" clip-rule="evenodd" d="M14 4.1499C12.7574 4.1499 11.75 5.15726 11.75 6.3999C11.75 7.64254 12.7574 8.6499 14 8.6499C15.2426 8.6499 16.25 7.64254 16.25 6.3999C16.25 5.15726 15.2426 4.1499 14 4.1499ZM10.25 6.3999C10.25 4.32883 11.9289 2.6499 14 2.6499C16.0711 2.6499 17.75 4.32883 17.75 6.3999C17.75 8.47097 16.0711 10.1499 14 10.1499C11.9289 10.1499 10.25 8.47097 10.25 6.3999Z" fill="#000000"/> </g> </g> </g>
</svg>

<svg width="800" height="800" viewBox="0 0 24 24" fill="none" xmlns="http://www.w3.org/2000/svg"><g fill-rule="evenodd" clip-rule="evenodd" fill="#585858"><path d="M7.75 17.5a.75.75 0 00-.75-.75H2a.75.75 0 000 1.5h5a.75.75 0 00.75-.75zm8.5-11a.75.75 0 01.75-.75h5a.75.75 0 010 1.5h-5a.75.75 0 01-.75-.75zm6.5 11a.75.75 0 00-.75-.75h-9a.75.75 0 000 1.5h9a.75.75 0 00.75-.75zm-21.5-11A.75.75 0 012 5.75h9a.75.75 0 010 1.5H2a.75.75 0 01-.75-.75z"/><path d="M10 15.15a2.25 2.25 0 110 4.5 2.25 2.25 0 010-4.5zm3.75 2.25a3.75 3.75 0 10-7.5 0 3.75 3.75 0 007.5 0zM14 4.15a2.25 2.25 0 100 4.5 2.25 2.25 0 000-4.5zM10.25 6.4a3.75 3.75 0 117.5 0 3.75 3.75 0 01-7.5 0z"/></g></svg>
